X:903
T:Orkney
C:Joe Buchanan's Scottish Tome - Page 500.2
I:500 2
Z:Jo Wegstein
R:Waltz
L:1/8
M:3/4
K:Emin
"E"B,4 (EF) | "G"G4 (FE) | "D"F4 (Ad) | "Bm"F4 D2 | "Em"E4 (GA) | "G"B6 | "D"d4 (AG) | "Bm"F6 |
"Em"B,4 (EF) | "G"G4 (FE) | "D"F4 (Ad) | "Bm"F4 D2 | "Em"E4 B2 | "D"A4 (FD) | "Em"{^E}E6- | E6 |
"D"d4 (AG) | "F#m"F6 | "Bm"(d3e) fd | "D"A2 F4 | "Em"g3 f "C"eg | "Bm"B6 | "C"(e3f) (ge) | "Bm"B6 |
"Em"B,4 (EF) | "G"G4 (FE) | "D"F4 (Ad) | "Bm"F4 D2 | "Em"E4 B2 | "D"A4 (FD) | "Em"{^E}E6- | E6 |]

